src/images/logo_colour.svg

<?xml version="1.0" encoding="UTF-8"?>
<svg width="96px" height="26px" viewBox="0 0 96 26" version="1.1" xmlns="http://www.w3.org/2000/svg" xmlns:xlink="http://www.w3.org/1999/xlink">
    <!-- Generator: Sketch 42 (36781) - http://www.bohemiancoding.com/sketch -->
    <title>Group</title>
    <desc>Created with Sketch.</desc>
    <defs></defs>
    <g id="Welcome" stroke="none" stroke-width="1" fill="none" fill-rule="evenodd">
        <g id="Mobile-Portrait-Copy-8" transform="translate(-10.000000, -10.000000)" fill="#500850">
            <g id="Group" transform="translate(10.000000, 10.000000)">
                <polyline id="Rectangle-2" points="95.2282784 2.36576929 0.23880597 2.36576929 2.0010903 1.17668613e-14 95.6871648 0"></polyline>
                <path d="M4.87406716,7.49139908 L1.79570896,7.49139908 L1.15951493,9.23380161 L0.143656716,9.14155677 L0.297574627,6.16922305 L11.4001866,6.16922305 L11.5438433,9.14155677 L10.5382463,9.23380161 L9.89179104,7.49139908 L6.82369403,7.49139908 L6.82369403,18.6837729 L8.39365672,19.0322534 L8.18843284,20.0366972 L3.50932836,20.0366972 L3.30410448,19.0322534 L4.87406716,18.6837729 L4.87406716,7.49139908 Z M13.4031809,7.52214736 L11.8332182,7.17366686 L12.0384421,6.16922305 L16.7072854,6.16922305 L16.9125092,7.17366686 L15.3528077,7.52214736 L15.3528077,12.0626433 L21.7557928,12.0626433 L21.7557928,7.52214736 L20.1960913,7.17366686 L20.4013152,6.16922305 L25.0804197,6.16922305 L25.2856436,7.17366686 L23.7054197,7.52214736 L23.7054197,18.6837729 L25.2856436,19.0322534 L25.0804197,20.0366972 L20.4013152,20.0366972 L20.1960913,19.0322534 L21.7557928,18.6837729 L21.7557928,13.3848194 L15.3528077,13.3848194 L15.3528077,18.6837729 L16.9125092,19.0322534 L16.7072854,20.0366972 L12.0384421,20.0366972 L11.8332182,19.0322534 L13.4031809,18.6837729 L13.4031809,7.52214736 Z M29.7718468,13.4463159 L29.7718468,18.7145212 L34.7074812,18.7145212 L35.5591603,16.7363819 L36.6263244,16.9721187 L36.3800558,20.0366972 L26.4574812,20.0366972 L26.2522573,19.0322534 L27.82222,18.6837729 L27.82222,7.52214736 L26.2522573,7.17366686 L26.4574812,6.16922305 L36.07222,6.16922305 L36.3184886,9.24405103 L35.2615856,9.46953842 L34.4099065,7.49139908 L29.7718468,7.49139908 L29.7718468,12.1241399 L33.4350931,12.1241399 L33.7839737,10.8737099 L34.7998319,11.0786984 L34.7998319,14.5020069 L33.7839737,14.7069954 L33.4350931,13.4463159 L29.7718468,13.4463159 Z M44.4597384,7.52214736 L42.8897757,7.17366686 L43.0949996,6.16922305 L47.4765295,6.16922305 L51.9504101,16.8491256 L52.1145892,16.8491256 L56.4037683,6.16922305 L60.8879101,6.16922305 L61.093134,7.17366686 L59.5334325,7.52214736 L59.5334325,18.6837729 L61.093134,19.0322534 L60.8879101,20.0366972 L56.2190668,20.0366972 L56.0138429,19.0322534 L57.5838056,18.6837729 L57.5838056,7.63489106 L57.4196265,7.63489106 L52.371119,20.0366972 L51.2936937,20.0366972 L46.0604847,7.63489106 L45.8963056,7.63489106 L45.8963056,18.6837729 L47.4560071,19.0322534 L47.2507832,20.0366972 L43.0949996,20.0366972 L42.8897757,19.0322534 L44.4597384,18.6837729 L44.4597384,7.52214736 Z M61.1978074,19.0322534 L62.3060163,18.7350201 L66.8209417,6.16922305 L68.3498596,6.16922305 L72.7519118,18.7350201 L73.8601208,19.0322534 L73.6548969,20.0366972 L69.7043372,20.0366972 L69.4991133,19.0322534 L70.8125462,18.7350201 L69.8479939,15.87543 L64.8097477,15.87543 L63.824673,18.7350201 L65.1381059,19.0322534 L64.932882,20.0366972 L61.4030312,20.0366972 L61.1978074,19.0322534 Z M65.2715014,14.553254 L69.3965014,14.553254 L67.4058298,8.72133028 L67.3032178,8.72133028 L65.2715014,14.553254 Z M79.5366226,12.2266342 C80.8226987,12.9782626 81.7615885,13.6666755 82.3533203,14.2918936 C82.9450521,14.9171118 83.2409136,15.6533549 83.2409136,16.5006451 C83.2409136,17.6280876 82.8013969,18.536861 81.9223502,19.2269925 C81.0433035,19.9171241 79.8684085,20.2621846 78.39763,20.2621846 C77.5767304,20.2621846 76.8259606,20.1989805 76.1452979,20.0725702 C75.4646353,19.94616 74.9225077,19.7941284 74.5188987,19.6164708 L74.3034136,16.9618693 L75.5039733,16.7056336 L76.3453912,18.6940224 C76.5985019,18.7691852 76.880682,18.8289729 77.1919397,18.8733873 C77.5031975,18.9178017 77.8537848,18.9400086 78.2437121,18.9400086 C78.7499336,18.9400086 79.233915,18.9058442 79.6956711,18.8375143 C80.1574271,18.7691845 80.5866828,18.6735241 80.9834509,18.5505304 C81.0518592,18.3797058 81.1202665,18.1525124 81.1886748,17.8689435 C81.2570831,17.5853746 81.2912868,17.2488552 81.2912868,16.859375 C81.2912868,16.4288969 81.0894853,15.9796349 80.6858763,15.5115754 C80.2822673,15.0435159 79.4100746,14.4063496 78.0692718,13.6000573 C76.331701,12.5751096 75.269678,11.7824952 74.8831711,11.2221904 C74.4966642,10.6618856 74.3034136,10.0503426 74.3034136,9.387543 C74.3034136,8.38992716 74.7326693,7.56656479 75.5911935,6.91743119 C76.4497177,6.2682976 77.6348737,5.94373567 79.1466972,5.94373567 C79.7213269,5.94373567 80.2976582,5.98473296 80.8757084,6.06672878 C81.4537585,6.14872461 82.012988,6.28538226 82.5534136,6.47670585 L82.7688987,9.24405103 L81.6914733,9.46953842 L80.8500554,7.49139908 C80.5695814,7.41623624 80.283981,7.35986496 79.9932457,7.32228354 C79.7025104,7.28470212 79.3998082,7.2659117 79.08513,7.2659117 C78.5583861,7.2659117 78.0658537,7.30349255 77.6075181,7.37865539 C77.1491825,7.45381823 76.7626814,7.54606214 76.4480032,7.65538991 C76.3864357,7.86037947 76.3385506,8.07732349 76.3043465,8.3062285 C76.2701423,8.5351335 76.2530405,8.77599262 76.2530405,9.02881307 C76.2530405,9.51395503 76.4565521,9.95980062 76.8635815,10.3663632 C77.2706109,10.7729259 78.1616157,11.39301 79.5366226,12.2266342 Z M88.4043557,7.49139908 L85.3259975,7.49139908 L84.6898035,9.23380161 L83.6739452,9.14155677 L83.8278632,6.16922305 L94.9304751,6.16922305 L95.0741318,9.14155677 L94.0685348,9.23380161 L93.4220796,7.49139908 L90.3539826,7.49139908 L90.3539826,18.6837729 L91.9239452,19.0322534 L91.7187214,20.0366972 L87.0396169,20.0366972 L86.834393,19.0322534 L88.4043557,18.6837729 L88.4043557,7.49139908 Z" id="THE-MAST"></path>
                <polygon id="Rectangle-2" points="0.698840416 23.6146789 95.9259707 23.6146789 94.1592773 25.9804482 0.23880597 25.9804482"></polygon>
            </g>
        </g>
    </g>
</svg>

<svg viewBox="0 0 96 26" xmlns="http://www.w3.org/2000/svg"><path d="M95.228 2.366H.238L2.002 0h93.686M4.874 7.491H1.796L1.16 9.234.144 9.142l.154-2.973H11.4l.144 2.973-1.006.092-.646-1.743H6.824v11.193l1.57.348-.206 1.005H3.51l-.205-1.005 1.57-.348V7.49zm8.53.031l-1.57-.348.204-1.005h4.67l.205 1.005-1.56.348v4.54h6.403v-4.54l-1.56-.348.205-1.005h4.68l.205 1.005-1.58.348v11.162l1.58.348-.206 1.005h-4.679l-.205-1.005 1.56-.348v-5.3h-6.403v5.3l1.56.348-.206 1.005h-4.669l-.205-1.005 1.57-.348V7.522zm16.368 5.924v5.269h4.935l.852-1.979 1.067.236-.246 3.065h-9.923l-.205-1.005 1.57-.348V7.522l-1.57-.348.205-1.005h9.615l.246 3.075-1.056.226-.852-1.979h-4.638v4.633h3.663l.349-1.25 1.016.205v3.423l-1.016.205-.349-1.26h-3.663zM44.46 7.522l-1.57-.348.205-1.005h4.382l4.473 10.68h.165l4.289-10.68h4.484l.205 1.005-1.56.348v11.162l1.56.348-.205 1.005h-4.669l-.205-1.005 1.57-.348V7.634h-.164l-5.05 12.404h-1.077L46.06 7.635h-.164v11.049l1.56.348-.205 1.005h-4.156l-.205-1.005 1.57-.348V7.522zm16.738 11.51l1.108-.297 4.515-12.566h1.529l4.402 12.566 1.108.297-.205 1.005h-3.95l-.206-1.005 1.314-.297-.965-2.86H64.81l-.985 2.86 1.313.297-.205 1.005h-3.53l-.205-1.005zm4.074-4.479h4.125l-1.991-5.832h-.103l-2.031 5.832zm14.265-2.326c1.286.751 2.225 1.44 2.816 2.065.592.625.888 1.361.888 2.209 0 1.127-.44 2.036-1.319 2.726s-2.054 1.035-3.524 1.035c-.821 0-1.572-.063-2.253-.19-.68-.126-1.222-.278-1.626-.456l-.216-2.654 1.201-.256.841 1.988c.254.075.536.135.847.18.311.044.662.066 1.052.066.506 0 .99-.034 1.452-.102a8.603 8.603 0 0 0 1.287-.287c.069-.171.137-.398.206-.682a4.35 4.35 0 0 0 .102-1.01c0-.43-.202-.88-.605-1.347-.404-.468-1.276-1.106-2.617-1.912-1.737-1.025-2.8-1.818-3.186-2.378a3.164 3.164 0 0 1-.58-1.834c0-.998.43-1.821 1.288-2.47.859-.65 2.044-.974 3.556-.974.574 0 1.15.04 1.729.123a8.657 8.657 0 0 1 1.677.41l.216 2.767-1.078.226-.84-1.979a6.55 6.55 0 0 0-.858-.169 7.082 7.082 0 0 0-.908-.056 9.14 9.14 0 0 0-1.477.113 7.078 7.078 0 0 0-1.16.276 4.65 4.65 0 0 0-.195 1.374c0 .485.204.93.61 1.337.408.407 1.299 1.027 2.674 1.86zm8.867-4.736h-3.078l-.636 1.743-1.016-.092.154-2.973H94.93l.144 2.973-1.005.092-.647-1.743h-3.068v11.193l1.57.348-.205 1.005h-4.68l-.205-1.005 1.57-.348V7.49zM.699 23.615h95.227l-1.767 2.365H.24z" fill="#500850" fill-rule="evenodd"/></svg>
